src/assets/rating.svg

<svg width="17" height="17" viewBox="0 0 17 17" fill="none" xmlns="http://www.w3.org/2000/svg">
<path fill-rule="evenodd" clip-rule="evenodd" d="M7.17718 0.907461C7.67708 -0.302488 9.32292 -0.302486 9.82282 0.907461L11.3219 4.53595C11.4262 4.78829 11.6544 4.9611 11.9168 4.98647L15.6908 5.35132C16.9493 5.47298 17.4579 7.10455 16.5084 7.974L13.6609 10.5814C13.4629 10.7627 13.3757 11.0423 13.4337 11.3103L14.267 15.1643C14.5449 16.4494 13.2133 17.4578 12.1266 16.7852L8.86767 14.7682C8.64103 14.6279 8.35897 14.6279 8.13233 14.7682L4.87338 16.7852C3.78666 17.4578 2.45514 16.4494 2.73302 15.1643L3.56635 11.3103C3.6243 11.0423 3.53714 10.7627 3.33912 10.5814L0.491649 7.97399C-0.457863 7.10454 0.0507352 5.47298 1.3092 5.35132L5.08317 4.98647C5.34562 4.9611 5.57381 4.78829 5.67807 4.53595L7.17718 0.907461ZM8.5 1.50124L7.00089 5.12973C6.68812 5.88675 6.00355 6.40518 5.21618 6.4813L1.44221 6.84614L4.28967 9.45352C4.88375 9.9975 5.14523 10.8363 4.97137 11.6404L4.13804 15.4944L7.39699 13.4773C8.07691 13.0565 8.92309 13.0565 9.60301 13.4773L12.862 15.4944L12.0286 11.6404C11.8548 10.8363 12.1163 9.99751 12.7103 9.45352L15.5578 6.84614L11.7838 6.4813C10.9965 6.40518 10.3119 5.88675 9.99912 5.12973L8.5 1.50124Z" fill="#F66B0E"/>
</svg>

<svg width="17" height="17" fill="none" xmlns="http://www.w3.org/2000/svg"><path fill-rule="evenodd" clip-rule="evenodd" d="M7.177.907a1.418 1.418 0 0 1 2.646 0l1.499 3.629a.723.723 0 0 0 .595.45l3.774.365c1.258.122 1.767 1.754.817 2.623l-2.847 2.607a.77.77 0 0 0-.227.73l.833 3.853c.278 1.285-1.054 2.294-2.14 1.621l-3.26-2.017a.695.695 0 0 0-.735 0l-3.259 2.017c-1.086.673-2.418-.336-2.14-1.62l.833-3.855a.77.77 0 0 0-.227-.729L.492 7.974c-.95-.87-.441-2.501.817-2.623l3.774-.365a.723.723 0 0 0 .595-.45l1.5-3.629Zm1.323.594L7 5.13A2.17 2.17 0 0 1 5.217 6.48l-3.774.365L4.29 9.454a2.31 2.31 0 0 1 .681 2.186l-.833 3.854 3.259-2.017c.68-.42 1.526-.42 2.206 0l3.259 2.017-.833-3.854a2.31 2.31 0 0 1 .681-2.186l2.848-2.608-3.774-.365A2.17 2.17 0 0 1 9.999 5.13L8.5 1.5Z" fill="#F66B0E"/></svg>
